X:039 
T:Crehan's Fiddle*
B:CRE 5.057 (gan ainm)
F:file ID: cre.5/039creh_f
N:This tune is from Clare fiddler Junior Crehan. Breathnach (or Jackie Small, 
who edited the last 2 volumes of CRE after Breathnach's death) doesn't 
specify if Crehan composed it or not.
M:6/8
Q:160
R:jig
K:D
d|BAF AFE|DFD EDB,|A,B,D EDE|FEE E2d|
"5"BAF AFE|DFD EDB,|A,B,D EDE|FDD D2:|
D|"9"DFA d3|ede fdB|def edB|ABd e2f|
"13"edc BAF|DFD EDB,|A,B,D EDE|FDD D3|
"17"DFA dcd|ede fdB|ABd ede|fed e2f|
"21"edc BAF|DFD EDB,|A,B,D EDE|FDD D3:|


%%%

